digital/Imbassy-X-Files/65ef0811cc67439994568a45/65ef0811cc67439994568f64_clutch.svg

<svg fill="none" height="56" viewBox="0 0 82 56" width="82" xmlns="http://www.w3.org/2000/svg"><g fill="#fff"><path d="m21.3359 16h3.7332v23.6983h-3.7332zm16.7993 16.1385c0 3.6268-3.0024 3.9159-3.8956 3.9159-2.2315 0-2.6374-2.1214-2.6374-3.4011v-9.0698h-3.7332v9.0508c0 2.2466.6944 4.1008 1.9114 5.3369 1.0751 1.0929 2.686 1.6901 4.4312 1.6901 1.2376 0 2.9903-.3915 3.9236-1.2569v1.2939h3.7332v-16.1148h-3.7332zm11.1995-14.2426h-3.7332v5.6876h-2.7998v3.7917h2.7998v12.3231h3.7332v-12.3231h2.7999v-3.7917h-2.7999zm14.5566 16.9841c-.8129.7422-1.8862 1.1536-3.064 1.1536-2.5964 0-4.5032-1.9366-4.5032-4.5956 0-2.6589 1.8461-4.514 4.5032-4.514 1.1573 0 2.2511.3915 3.0845 1.1337l.5665.4948 2.5171-2.5556-.63-.5773c-1.4811-1.3584-3.4476-2.1205-5.5391-2.1205-4.6664 0-8.0552 3.4201-8.0552 8.119 0 4.679 3.47 8.2214 8.0552 8.2214 2.1307 0 4.1177-.7621 5.5802-2.1423l.6085-.5773-2.5563-2.5537zm16.4287-9.8917c-1.0751-1.092-2.3351-1.6892-4.0803-1.6892-1.2376 0-2.6394.3915-3.5727 1.256v-8.5551h-3.7332v23.6983h3.7332v-8.8774c0-3.6268 2.5367-3.9149 3.4299-3.9149 2.2315 0 2.1699 2.1224 2.1699 3.4002v9.3921h3.7331v-9.3722c0-2.2466-.4619-4.1008-1.6799-5.3378z"/><path d="m60.7049 28.7363c.7159 0 1.4024.2889 1.9086.803s.7905 1.2114.7905 1.9384c0 .7271-.2843 1.4244-.7905 1.9385s-1.1927.803-1.9086.803c-.7158 0-1.4023-.2889-1.9085-.803s-.7905-1.2114-.7905-1.9385c0-.727.2843-1.4243.7905-1.9384s1.1927-.803 1.9085-.803z"/><path d="m16.1096 33.7467c-1.4196 1.4835-3.3478 2.2874-5.3767 2.2874-4.15879 0-7.18266-3.3178-7.18266-7.8716 0-4.5747 3.02387-7.8925 7.18266-7.8925 2.0093 0 3.9161.8029 5.3571 2.2665l.5674.5773 2.4956-2.5348-.5478-.5773c-2.0691-2.1641-4.869-3.3376-7.8723-3.3376-6.1271 0-10.7329 4.9453-10.7329 11.5183 0 6.553 4.62633 11.4785 10.7329 11.4785 3.0238 0 5.8237-1.1944 7.8928-3.3585l.5479-.5773-2.4751-2.5756z"/></g></svg>

<svg width="82" height="56" viewBox="0 0 82 56" fill="none" xmlns="http://www.w3.org/2000/svg">
<path d="M21.3359 16H25.0691V39.6983H21.3359V16ZM38.1352 32.1385C38.1352 35.7653 35.1328 36.0544 34.2396 36.0544C32.0081 36.0544 31.6022 33.933 31.6022 32.6533V23.5835H27.869V32.6343C27.869 34.8809 28.5634 36.7351 29.7804 37.9712C30.8555 39.0641 32.4664 39.6613 34.2116 39.6613C35.4492 39.6613 37.2019 39.2698 38.1352 38.4044V39.6983H41.8684V23.5835H38.1352V32.1385ZM49.3347 17.8959H45.6015V23.5835H42.8017V27.3752H45.6015V39.6983H49.3347V27.3752H52.1346V23.5835H49.3347V17.8959ZM63.8913 34.88C63.0784 35.6222 62.0051 36.0336 60.8273 36.0336C58.2309 36.0336 56.3241 34.097 56.3241 31.438C56.3241 28.7791 58.1702 26.924 60.8273 26.924C61.9846 26.924 63.0784 27.3155 63.9118 28.0577L64.4783 28.5525L66.9954 25.9969L66.3654 25.4196C64.8843 24.0612 62.9178 23.2991 60.8263 23.2991C56.1599 23.2991 52.7711 26.7192 52.7711 31.4181C52.7711 36.0971 56.2411 39.6395 60.8263 39.6395C62.957 39.6395 64.944 38.8774 66.4065 37.4972L67.015 36.9199L64.4587 34.3662L63.8913 34.88ZM80.32 24.9883C79.2449 23.8963 77.9849 23.2991 76.2397 23.2991C75.0021 23.2991 73.6003 23.6906 72.667 24.5551V16H68.9338V39.6983H72.667V30.8209C72.667 27.1941 75.2037 26.906 76.0969 26.906C78.3284 26.906 78.2668 29.0284 78.2668 30.3062V39.6983H81.9999V30.3261C81.9999 28.0795 81.538 26.2253 80.32 24.9883Z" fill="white"/>
<path d="M60.7049 28.7363C61.4208 28.7363 62.1073 29.0252 62.6135 29.5393C63.1197 30.0534 63.404 30.7507 63.404 31.4777C63.404 32.2048 63.1197 32.9021 62.6135 33.4162C62.1073 33.9303 61.4208 34.2192 60.7049 34.2192C59.9891 34.2192 59.3026 33.9303 58.7964 33.4162C58.2902 32.9021 58.0059 32.2048 58.0059 31.4777C58.0059 30.7507 58.2902 30.0534 58.7964 29.5393C59.3026 29.0252 59.9891 28.7363 60.7049 28.7363Z" fill="white"/>
<path d="M16.1096 33.7467C14.69 35.2302 12.7618 36.0341 10.7329 36.0341C6.57411 36.0341 3.55024 32.7163 3.55024 28.1625C3.55024 23.5878 6.57411 20.27 10.7329 20.27C12.7422 20.27 14.649 21.0729 16.09 22.5365L16.6574 23.1138L19.153 20.579L18.6052 20.0017C16.5361 17.8376 13.7362 16.6641 10.7329 16.6641C4.6058 16.6641 0 21.6094 0 28.1824C0 34.7354 4.62633 39.6609 10.7329 39.6609C13.7567 39.6609 16.5566 38.4665 18.6257 36.3024L19.1736 35.7251L16.6985 33.1495L16.1096 33.7467Z" fill="white"/>
</svg>
